icon/fa/car.svg

<svg xmlns="http://www.w3.org/2000/svg" viewBox="0 0 512 512"><!--! Font Awesome Free 6.1.2 by @fontawesome - https://fontawesome.com License - https://fontawesome.com/license/free (Icons: CC BY 4.0, Fonts: SIL OFL 1.1, Code: MIT License) Copyright 2022 Fonticons, Inc.--><path d="M39.61 196.8 74.8 96.29C88.27 57.78 124.6 32 165.4 32h181.2c40.8 0 77.1 25.78 90.6 64.29l35.2 100.51c23.2 9.6 39.6 32.5 39.6 59.2v192c0 17.7-14.3 32-32 32h-32c-17.7 0-32-14.3-32-32v-48H96v48c0 17.7-14.33 32-32 32H32c-17.67 0-32-14.3-32-32V256c0-26.7 16.36-49.6 39.61-59.2zm69.49-4.8h293.8l-26.1-74.6c-4.5-12.8-16.6-21.4-30.2-21.4H165.4c-13.6 0-25.7 8.6-30.2 21.4L109.1 192zM96 256c-17.67 0-32 14.3-32 32s14.33 32 32 32c17.7 0 32-14.3 32-32s-14.3-32-32-32zm320 64c17.7 0 32-14.3 32-32s-14.3-32-32-32-32 14.3-32 32 14.3 32 32 32z"/></svg>

<svg xmlns="http://www.w3.org/2000/svg" viewBox="0 0 512 512" height="1em" width="1em">
<!--! Font Awesome Free 6.1.2 by @fontawesome - https://fontawesome.com License - https://fontawesome.com/license/free (Icons: CC BY 4.0, Fonts: SIL OFL 1.1, Code: MIT License) Copyright 2022 Fonticons, Inc.-->
  <path d="M39.61 196.8L74.8 96.29C88.27 57.78 124.6 32 165.4 32H346.6C387.4 32 423.7 57.78 437.2 96.29L472.4 196.8C495.6 206.4 512 229.3 512 256V448C512 465.7 497.7 480 480 480H448C430.3 480 416 465.7 416 448V400H96V448C96 465.7 81.67 480 64 480H32C14.33 480 0 465.7 0 448V256C0 229.3 16.36 206.4 39.61 196.8V196.8zM109.1 192H402.9L376.8 117.4C372.3 104.6 360.2 96 346.6 96H165.4C151.8 96 139.7 104.6 135.2 117.4L109.1 192zM96 256C78.33 256 64 270.3 64 288C64 305.7 78.33 320 96 320C113.7 320 128 305.7 128 288C128 270.3 113.7 256 96 256zM416 320C433.7 320 448 305.7 448 288C448 270.3 433.7 256 416 256C398.3 256 384 270.3 384 288C384 305.7 398.3 320 416 320z"/>
</svg>
